X: 26
T: Missa In feuers hitz / Credo
N: Derived from Mar1007c-Missa_In_feuers_hitz-Credo.krn
C: Johannes Martini
%%abc-version 2.0
%%abcx-abcm2ps-target-version 5.9.1 (29 Sep 2008)
%%abc-creator hum2abc beta
%%abcx-conversion-date 2019/02/17 07:19:41
%%abc-edited-by Jesse Rodin
%%abc-edited-by Chris Gage 10-02-2014
%%abcx-initial-encoding-date 2015/03/07/
%%humdrum-veritas 3286382244
%%humdrum-veritas-data 543448680
%%linebreak <none>
%%barnumbers 0
L: 1/4
M: 4/2
Q: 1/2=120
V: 1 clef=treble
V: 2 clef=treble-8
V: 3 clef=treble-8
K: C
[V:1] c4c2c2 | 
[V:2] c8- | 
[V:3] z8 | 
[V:1] e6d2 | 
[V:2] c8- | 
[V:3] c4c2c2 | 
[V:1] c2BAG4 | 
[V:2] c8 | 
[V:3] e6d2 | 
[V:1] G4A4 | 
[V:2] e4f4 | 
[V:3] c2B2A4 | 
[V:1] B4z2G2 | 
[V:2] g8 | 
[V:3] G8 | 
[V:1] G2G2A4 | 
[V:2] e4f4 | 
[V:3] z8 | 
[V:1] G4z2B2 | 
[V:2] e8 | 
[V:3] z2g2g2g2 | 
[V:1] c2c2B2B2 | 
[V:2] c4z2G2 | 
[V:3] a2a2g2g2 | 
[V:1] d2d2d4 | 
[V:2] G4G4 | 
[V:3] d4z2g2 | 
[V:1] c4B4 | 
[V:2] A4G4 | 
[V:3] e2f2g4 | 
[V:1] A4A2B2- | 
[V:2] d4c2d2 | 
[V:3] f4e2f2 | 
[V:1] BAG4^F2 | 
[V:2] G4A4 | 
[V:3] g2d4c2 | 
[V:1] G4z4 | 
[V:2] G4d4 | 
[V:3] d4G2B2 | 
[V:1] z8 | 
[V:2] c2B2A2G2 | 
[V:3] A2d2c2B2- | 
[V:1] z8 | 
[V:2] B4A4 | 
[V:3] BAG4^F2 | 
[V:1] d4c2B2 | 
[V:2] G4z4 | 
[V:3] G2g2e2d2 | 
[V:1] A2G2B4 | 
[V:2] z8 | 
[V:3] f2e2d2g2- | 
[V:1] A4G4 | 
[V:2] z4g4 | 
[V:3] g2^f2g2c2 | 
[V:1] z8 | 
[V:2] f2e2d2c2 | 
[V:3] d2c2B2e2- | 
[V:1] z8 | 
[V:2] e4d4 | 
[V:3] edc4B2 | 
[V:1] z2g4f2 | 
[V:2] c4z4 | 
[V:3] c4z4 | 
[V:1] e2e2d4 | 
[V:2] z8 | 
[V:3] z2g4f2 | 
[V:1] c4z4 | 
[V:2] z2g4f2 | 
[V:3] e2e2d4 | 
[V:1] z2G2A2B2 | 
[V:2] e2eed2d2 | 
[V:3] c4z4 | 
[V:1] c2c2d2B2 | 
[V:2] c4z4 | 
[V:3] z4z2G2 | 
[V:1] c2d2e2dc | 
[V:2] z8 | 
[V:3] A2B2c2c2 | 
[V:1] B4z4 | 
[V:2] z2G2A2B2 | 
[V:3] d2B2c2d2 | 
[V:1] z4z2d2 | 
[V:2] c2c2d2B2 | 
[V:3] e2dcB4 | 
[V:1] e2f2g2fe | 
[V:2] c2d2e2dc | 
[V:3] z8 | 
[V:1] d4c2BA | 
[V:2] B4z4 | 
[V:3] z2d2e2f2 | 
[V:1] G2c4B2 | 
[V:2] z4z2d2 | 
[V:3] g2fed4 | 
[V:1] c4z2G2- | 
[V:2] e2f2g2fe | 
[V:3] c2BAG2c2- | 
[V:1] G2F2E2G2- | 
[V:2] d4c2BA | 
[V:3] c2B2c4 | 
[V:1] GFE2D4 | 
[V:2] G2c4B2 | 
[V:3] g4a2g2 | 
[V:1] C4G4 | 
[V:2] c4z4 | 
[V:3] e4e2e2 | 
[V:1] A2G2E4 | 
[V:2] z8 | 
[V:3] f4g4 | 
[V:1] E2E2F4 | 
[V:2] g4a2g2 | 
[V:3] c2e2d4 | 
[V:1] G4z2G2 | 
[V:2] e4e2e2 | 
[V:3] c6B2 | 
[V:1] A4B2d2- | 
[V:2] f4g4 | 
[V:3] A4G4 | 
[V:1] dcc4B2 | 
[V:2] c2e2d4 | 
[V:3] A2c2G4 | 
[V:1] c4z4 | 
[V:2] c6B2 | 
[V:3] g2a3gg2- | 
[V:1] z2c2B2c2 | 
[V:2] A4G4- | 
[V:3] g2^f2g4 | 
[V:1] d2d2G4 | 
[V:2] G4z2c2 | 
[V:3] z2d2e2e2 | 
[V:1] z2A2B2c2 | 
[V:2] B2c2d2d2 | 
[V:3] d3cG4 | 
[V:1] d4e4 | 
[V:2] G4z2A2 | 
[V:3] z2B2c4 | 
[V:1] d2z2f2f2 | 
[V:2] B2c2d4 | 
[V:3] d2g2f2ed | 
[V:1] g2g2f2ed | 
[V:2] e2e2d4 | 
[V:3] c4z2_B2 | 
[V:1] c4A4 | 
[V:2] z2e2f2f2 | 
[V:3] A2c2d4 | 
[V:1] G2d3cc2- | 
[V:2] g4f2e2 | 
[V:3] G2B4c2 | 
[V:1] c2B2c4 ||  
[V:2] d4c4 ||  
[V:3] G4g4 ||  
[V:1]  [K:C] [K:clef=treble][M:4/2]G4G4 | 
[V:2]  [K:C] [K:clef=treble-8][M:4/2]c8- | 
[V:3]  [K:C] [K:clef=treble-8][M:4/2]z8 | 
[V:1] A4G4 | 
[V:2] c8- | 
[V:3] z8 | 
[V:1] E4E2G2- | 
[V:2] c8- | 
[V:3] g4g4 | 
[V:1] G2F2E3D | 
[V:2] c8 | 
[V:3] a4g4 | 
[V:1] C4z2E2- | 
[V:2] c8- | 
[V:3] e4e2g2- | 
[V:1] E2F2G2G2 | 
[V:2] c8- | 
[V:3] g2f2e3d | 
[V:1] A2A2G4 | 
[V:2] c8 | 
[V:3] c4z2e2- | 
[V:1] c6G2 | 
[V:2] z4c4- | 
[V:3] e2f2g2g2 | 
[V:1] c2d2e2e2 | 
[V:2] c2G2c2d2 | 
[V:3] a2g2g4 | 
[V:1] c4z4 | 
[V:2] e2e2c4 | 
[V:3] z4e4 | 
[V:1] z4e4 | 
[V:2] z8 | 
[V:3] f4e4 | 
[V:1] f4e4 | 
[V:2] z8 | 
[V:3] d4c4 | 
[V:1] d4c4 | 
[V:2] g4e2f2- | 
[V:3] G4A4- | 
[V:1] z8 | 
[V:2] f2g2e4 | 
[V:3] A2G2A2c2- | 
[V:1] z4g4 | 
[V:2] d4c4 | 
[V:3] c2B2c4 | 
[V:1] e2f2f2g2 | 
[V:2] z8 | 
[V:3] z8 | 
[V:1] e4d4 | 
[V:2] z8 | 
[V:3] g4g4 | 
[V:1] c2c2A2B2 | 
[V:2] z8 | 
[V:3] e2f4g2 | 
[V:1] G2c4B2 | 
[V:2] z8 | 
[V:3] e4d4 | 
[V:1] c4z2G2 | 
[V:2] c8- | 
[V:3] c4z4 | 
[V:1] G2A2G2F2 | 
[V:2] c8 | 
[V:3] z8 | 
[V:1] G2FED4 | 
[V:2] B8 | 
[V:3] z8 | 
[V:1] C2E2E2F2 | 
[V:2] c4z4 | 
[V:3] z2g2g2a2 | 
[V:1] E2D2E2DC | 
[V:2] z8 | 
[V:3] g2f2g2fe | 
[V:1] B,4C4 | 
[V:2] z4z2g2 | 
[V:3] d4c2e2 | 
[V:1] z8 | 
[V:2] g2a2g2f2 | 
[V:3] e2f2e2d2 | 
[V:1] z8 | 
[V:2] g2fed4 | 
[V:3] e2dcB3A | 
[V:1] z2C2E2F2 | 
[V:2] c8- | 
[V:3] c8 | 
[V:1] G4C4 | 
[V:2] c4z2c2 | 
[V:3] z2c2e2f2 | 
[V:1] z8 | 
[V:2] e2f2g4 | 
[V:3] g4c4 | 
[V:1] z2c2e4 | 
[V:2] c4z4 | 
[V:3] z4z2c2 | 
[V:1] e2e2c4 | 
[V:2] z4z2c2 | 
[V:3] e4e2e2 | 
[V:1] z4G4 | 
[V:2] e4e2e2 | 
[V:3] c4z4 | 
[V:1] A2c4d2 | 
[V:2] c4z4 | 
[V:3] z8 | 
[V:1] B4c2e2- | 
[V:2] z8 | 
[V:3] G4A2c2- | 
[V:1] e2f2d4 | 
[V:2] z4G4 | 
[V:3] c2d2B2B2 | 
[V:1] c6A2 | 
[V:2] A2c4d2 | 
[V:3] c2e4f2 | 
[V:1] d4G4 | 
[V:2] B2B2c2e2- | 
[V:3] d4c4- | 
[V:1] c2c4B2 | 
[V:2] e2f2d4 | 
[V:3] c2F2G4 | 
[V:1] c8 | 
[V:2] c8- | 
[V:3] z4g4 | 
[V:1] z4G4 | 
[V:2] c8- | 
[V:3] a4g2e2- | 
[V:1] A4G2E2- | 
[V:2] c8 | 
[V:3] e2f2g2g2 | 
[V:1] E2F2G4 | 
[V:2] z8 | 
[V:3] c4z2c2- | 
[V:1] C4c4 | 
[V:2] g4a4 | 
[V:3] c2B2A2F2 | 
[V:1] B2G4A2 | 
[V:2] g2e4f2 | 
[V:3] G2c4A2 | 
[V:1] B4c2B2 | 
[V:2] g4c4 | 
[V:3] G4z2g2- | 
[V:1] A4G4 | 
[V:2] z4G4- | 
[V:3] g2^f2g4- | 
[V:1] B2B2B2B2 | 
[V:2] G4G4 | 
[V:3] g2g2g4 | 
[V:1] A4F2A2- | 
[V:2] d4d4 | 
[V:3] f6d2 | 
[V:1] A2G2G4- | 
[V:2] c4B4 | 
[V:3] e4d4- | 
[V:1] G2^FEF4 | 
[V:2] A4A4 | 
[V:3] d2cBc4 | 
[V:1] G8- | 
[V:2] G8- | 
[V:3] d4z2d2 | 
[V:1] G8 | 
[V:2] G4z4 | 
[V:3] d2d2e4 | 
[V:1] z8 | 
[V:2] z2d2d2d2 | 
[V:3] d4B4 | 
[V:1] z4z2d2 | 
[V:2] e4d4 | 
[V:3] c2B2G4 | 
[V:1] d2d2e2e2 | 
[V:2] B4c2B2 | 
[V:3] z8 | 
[V:1] d4B4 | 
[V:2] G4z4 | 
[V:3] g4g2g2 | 
[V:1] c3BG4 | 
[V:2] g4g2g2 | 
[V:3] e2c2e2f2 | 
[V:1] g4g2g2 | 
[V:2] e2c2e2f2 | 
[V:3] g4c4 | 
[V:1] e2c2e2f2 | 
[V:2] g4c4 | 
[V:3] z8 | 
[V:1] g4c4 | 
[V:2] z8 | 
[V:3] G4A2c2- | 
[V:1] z8 | 
[V:2] G4A2c2- | 
[V:3] c2B2c2e2 | 
[V:1] G4A2c2- | 
[V:2] c2B2c2e2 | 
[V:3] d4c4 | 
[V:1] c2B2c2e2 | 
[V:2] d4c4 | 
[V:3] G4z2c2 | 
[V:1] d4c4 | 
[V:2] z4z2c2 | 
[V:3] d2f2e2dc | 
[V:1] z4z2c2 | 
[V:2] d2f2e2dc | 
[V:3] B3Ac4 | 
[V:1] d2f2e2dc | 
[V:2] B3Ac4 | 
[V:3] z4A4 | 
[V:1] B3Ac4 | 
[V:2] d4c4 | 
[V:3] G4e4 | 
[V:1] d4c4 | 
[V:2] z4e4 | 
[V:3] d4e2g2- | 
[V:1] z4e4 | 
[V:2] d4e2g2- | 
[V:3] g2f2g4 | 
[V:1] d4e2g2- | 
[V:2] g2f2g4 | 
[V:3] z2d2c2e2 | 
[V:1] g2^f2g4 | 
[V:2] a4g4 | 
[V:3] d4G4 | 
[V:1] e4e4- | 
[V:2] c4c4- | 
[V:3] g4g2a2- | 
[V:1] e2d2c4 | 
[V:2] c2B2A4 | 
[V:3] agg4^f2 | 
[V:1] B4A4 | 
[V:2] G4d4 | 
[V:3] g4f4 | 
[V:1] B2d4cB | 
[V:2] B4G4 | 
[V:3] d4d2e2- | 
[V:1] cBAG^F3E | 
[V:2] A8 | 
[V:3] edcBc4 | 
[V:1] G8 | 
[V:2] G8 | 
[V:3] d4c4- | 
[V:1] z4B4 | 
[V:2] g8 | 
[V:3] c2G4G2 | 
[V:1] A4c4 | 
[V:2] f4e4 | 
[V:3] d4c4 | 
[V:1] d4e4- | 
[V:2] d4c4 | 
[V:3] B4A4 | 
[V:1] e2d2c4- | 
[V:2] e8 | 
[V:3] c8 | 
[V:1] c4B4 | 
[V:2] d8 | 
[V:3] G8 | 
[V:1] c8 |]  
[V:2] c8 |]  
[V:3] g8 |]  



